FINK
CUT[ES BLIES EIN JAEGER WOL IN SEIN HORN]
REG[Europa, Mitteleuropa, Deutschland]
KEY[F0667  16  E 6/8]
MEL[-5_  -5__-5_-4_.-6-7_  1__1_1__
    1_  2__-5_2__-5_  3___0_
    -3_  -3_.-3-3_-6_.-6-6_  -7_.-6-7_1__
    1_  2__2_2__2_  3__.^__
    3_  2__-5_-5_.-6-5_  1_.11_1__
    1_  1__-7_1_1_2_  3__3_3__
    -5_  4__.4__.  3__.3__.
    2__.2__.  1__.
    1__.  1_.11_-7_.-6-7_  1__.
    1__.  1_.11_-7_.-6-7_  1__0__. //] >>
FCT[Staende -, Jaeger - Lied, Liebe]
